X: 2037
T: Cullens Road
B: steve tunes
M:4/4
Q: 1/4=105
K:D
V:1 
(3A,B,C|"D"D2A>F A2(3ABc|"Bm"d2d>c B>A F>A|"D"A2d>F A2 (3FED|
"A"A,>D (3DEF E2 (3A,B,C|"D"D2A>F A2 (3ABc|"Bm"d2d>c B>A F>A|"D"A2d>F A2(3FED|
"A"A,>D "D"D>E D2:||: (3ABc|"Bm"d2d>c B2 B2|"D"A>B "A"A>E "D"F2 (3ABc|"Bm"d2d>cB2(3Bcd|
"D"d2e2 (3fed "A"(3cBA| "Bm"d2d>c B2B2|"D"A>B "A"A>E "D"F2 (3DEF|A2d>F A2 (3FED|"A"A,>D D>E "D"D2:|
W: 
% abcbook-tune_id 62a4bd0be9bf25388e0a3b34


% abcbook-boost 0
% abcbook-tablature 
% abcbook-transpose 
% abcbook-lastupdated 1654964527285
% abcbook-soundfonts 
% abcbook-repeats 3


